packages/kaspersky-hexa-ui-icons/src/iconsSVGs/64x42/FlagMt.svg

<svg width="64" height="42" viewBox="0 0 64 42" fill="none" xmlns="http://www.w3.org/2000/svg">
<g clip-path="url(#clip0_37941_2306)">
<rect width="64" height="42" rx="5" fill="white"/>
<rect x="0.5" y="0.5" width="43.2526" height="41" rx="4.5" stroke="#F5F5F5"/>
<path fill-rule="evenodd" clip-rule="evenodd" d="M33.3999 42H64V0H33.3999V42Z" fill="#DE233C"/>
<mask id="path-4-outside-1_37941_2306" maskUnits="userSpaceOnUse" x="4.25757" y="3.59985" width="14" height="14" fill="black">
<rect fill="white" x="4.25757" y="3.59985" width="14" height="14"/>
<path fill-rule="evenodd" clip-rule="evenodd" d="M13.1527 5.59985H9.70521V9.04749H6.25757V12.495H9.70521V15.9423H13.1527V12.495H16.6V9.04749H13.1527V5.59985Z"/>
</mask>
<path fill-rule="evenodd" clip-rule="evenodd" d="M13.1527 5.59985H9.70521V9.04749H6.25757V12.495H9.70521V15.9423H13.1527V12.495H16.6V9.04749H13.1527V5.59985Z" fill="#CCCCCD"/>
<path d="M9.70521 5.59985V4.19985H8.30521V5.59985H9.70521ZM13.1527 5.59985H14.5527V4.19985H13.1527V5.59985ZM9.70521 9.04749V10.4475H11.1052V9.04749H9.70521ZM6.25757 9.04749V7.64749H4.85757V9.04749H6.25757ZM6.25757 12.495H4.85757V13.895H6.25757V12.495ZM9.70521 12.495H11.1052V11.095H9.70521V12.495ZM9.70521 15.9423H8.30521V17.3423H9.70521V15.9423ZM13.1527 15.9423V17.3423H14.5527V15.9423H13.1527ZM13.1527 12.495V11.095H11.7527V12.495H13.1527ZM16.6 12.495V13.895H18V12.495H16.6ZM16.6 9.04749H18V7.64749H16.6V9.04749ZM13.1527 9.04749H11.7527V10.4475H13.1527V9.04749ZM9.70521 6.99985H13.1527V4.19985H9.70521V6.99985ZM11.1052 9.04749V5.59985H8.30521V9.04749H11.1052ZM6.25757 10.4475H9.70521V7.64749H6.25757V10.4475ZM7.65757 12.495V9.04749H4.85757V12.495H7.65757ZM9.70521 11.095H6.25757V13.895H9.70521V11.095ZM11.1052 15.9423V12.495H8.30521V15.9423H11.1052ZM13.1527 14.5423H9.70521V17.3423H13.1527V14.5423ZM11.7527 12.495V15.9423H14.5527V12.495H11.7527ZM16.6 11.095H13.1527V13.895H16.6V11.095ZM15.2 9.04749V12.495H18V9.04749H15.2ZM13.1527 10.4475H16.6V7.64749H13.1527V10.4475ZM11.7527 5.59985V9.04749H14.5527V5.59985H11.7527Z" fill="#7B716A" fill-opacity="0.66" mask="url(#path-4-outside-1_37941_2306)"/>
<circle cx="11.4288" cy="10.7712" r="1.72373" fill="#7B716A"/>
</g>
<defs>
<clipPath id="clip0_37941_2306">
<rect width="64" height="42" rx="5" fill="white"/>
</clipPath>
</defs>
</svg>

<svg xmlns="http://www.w3.org/2000/svg" width="64" height="42" fill="none" viewBox="0 0 64 42"><g clip-path="url(#a)"><rect width="64" height="42" fill="#fff" rx="5"/><rect width="43" height="41" x="1" y="1" stroke="#f5f5f5" rx="5"/><path fill="#de233c" fill-rule="evenodd" d="M33.3999 42H64V0H33.3999z" clip-rule="evenodd"/><mask id="b" width="14" height="14" x="4" y="4" fill="#000" maskUnits="userSpaceOnUse"><path fill="#fff" d="M4.2576 3.5998h14v14h-14z"/><path fill-rule="evenodd" d="M13.1527 5.5999H9.7052v3.4476H6.2576v3.4475h3.4476v3.4473h3.4475V12.495H16.6V9.0475h-3.4473z" clip-rule="evenodd"/></mask><path fill="#cccccd" fill-rule="evenodd" d="M13.1527 5.5999H9.7052v3.4476H6.2576v3.4475h3.4476v3.4473h3.4475V12.495H16.6V9.0475h-3.4473z" clip-rule="evenodd"/><path fill="#7b716a" d="M9.7052 5.5999v-1.4h-1.4v1.4zm3.4475 0h1.4v-1.4h-1.4zM9.7052 9.0475v1.4h1.4v-1.4zm-3.4476 0v-1.4h-1.4v1.4zm0 3.4475h-1.4v1.4h1.4zm3.4476 0h1.4v-1.4h-1.4zm0 3.4473h-1.4v1.4h1.4zm3.4475 0v1.4h1.4v-1.4zm0-3.4473v-1.4h-1.4v1.4zm3.4473 0v1.4H18v-1.4zm0-3.4475H18v-1.4h-1.4zm-3.4473 0h-1.4v1.4h1.4zM9.7052 6.9999h3.4475v-2.8H9.7052zm1.4 2.0476V5.5999h-2.8v3.4476zm-4.8476 1.4h3.4476v-2.8H6.2576zm1.4 2.0475V9.0475h-2.8v3.4475zm2.0476-1.4H6.2576v2.8h3.4476zm1.4 4.8473V12.495h-2.8v3.4473zm2.0475-1.4H9.7052v2.8h3.4475zm-1.4-2.0473v3.4473h2.8V12.495zm4.8473-1.4h-3.4473v2.8H16.6zm-1.4-2.0475v3.4475H18V9.0475zm-2.0473 1.4H16.6v-2.8h-3.4473zm-1.4-4.8476v3.4476h2.8V5.5999z" mask="url(#b)"/><circle cx="11" cy="11" r="2" fill="#7b716a"/></g><defs><clipPath id="a"><rect width="64" height="42" fill="#fff" rx="5"/></clipPath></defs></svg>
